X: 20849
T: Johnstone's Fancy
R: hornpipe
M: 4/4
K: Cmajor
(3EF^F|(3G^FG cG FcAF|(3G^FG cG FcAF|GABA G^F=FE|D^CDE ~D2 (3EF^F|
(3G^FG cG FcAF|(3G^FG cG FcAF|GABA G^F=FE|D^CDE ~=C2:|
cB|ABcd (3efe Ae|(3fgf Af (3efe Ac|(3BcB Ec (3BcB EE|^GEGB edcB|
ABcd (3efe Ae|(3fgf Af (3efe Ac|(3BcB Ec (3BcB EE|1 edcB ~A2:|2 edcB ~A2||
EF|~G2 ed cBAG|~F2 Ac fedc|Bdba (3gag (3fgf|(3efe (3ded cBAG|
~E2 ed cBAG|~F2 Ac fedc|Bdba gfed|(3ceg (3c'ge ~c2:|
eg|~c'2 ge cegc'|~b2 af ~d2 dc'|~b2 af dGAB|cdef ^fgab|
~c'2 ge cegc'|~b2 af ~d2 dc'|~b2 af dGAB|(3cBc ed ~c2 EG|
~c2 GE CEGc|~B2 AF ~D2 Dc|~B2 AF DG,A,B,|CDEF ^FGAB|
~c2 GE CEGc|~B2 AF ~D2 Dc|~B2 AF DG,A,B,|(3CB,C ED C2||

